packages/kaspersky-hexa-ui-icons/src/iconsSVGs/16/Add1.svg

<svg width="16" height="16" viewBox="0 0 16 16" fill="none" xmlns="http://www.w3.org/2000/svg">
<path d="M4.61245 8.84698C4.61245 8.488 4.90347 8.19698 5.26245 8.19698H7.35635V6.09674C7.35635 5.73776 7.64736 5.44674 8.00635 5.44674C8.36533 5.44674 8.65635 5.73776 8.65635 6.09674V8.19699H10.7566C11.1156 8.19698 11.4066 8.488 11.4066 8.84698C11.4066 9.20597 11.1156 9.49698 10.7566 9.49698H8.65635V11.5909C8.65635 11.9499 8.36533 12.2409 8.00635 12.2409C7.64736 12.2409 7.35635 11.9499 7.35635 11.5909V9.49698H5.26245C4.90347 9.49698 4.61245 9.20597 4.61245 8.84698Z" fill="black"/>
<path fill-rule="evenodd" clip-rule="evenodd" d="M8 15.8501C11.866 15.8501 15 12.7161 15 8.8501C15 4.9841 11.866 1.8501 8 1.8501C4.13401 1.8501 1 4.9841 1 8.8501C1 12.7161 4.13401 15.8501 8 15.8501ZM8 14.5501C11.148 14.5501 13.7 11.9981 13.7 8.8501C13.7 5.70207 11.148 3.1501 8 3.1501C4.85198 3.1501 2.3 5.70207 2.3 8.8501C2.3 11.9981 4.85198 14.5501 8 14.5501Z" fill="black"/>
</svg>

<svg xmlns="http://www.w3.org/2000/svg" width="16" height="16" fill="none" viewBox="0 0 16 16"><path fill="#000" d="M4.6125 8.847a.65.65 0 0 1 .65-.65h2.0938V6.0967a.65.65 0 0 1 1.3 0V8.197h2.1003a.65.65 0 1 1 0 1.3H8.6563v2.0939a.65.65 0 1 1-1.3 0v-2.094H5.2626a.65.65 0 0 1-.65-.65"/><path fill="#000" fill-rule="evenodd" d="M8 15.8501c3.866 0 7-3.134 7-7s-3.134-7-7-7-7 3.134-7 7 3.134 7 7 7m0-1.3c3.148 0 5.7-2.552 5.7-5.7s-2.552-5.7-5.7-5.7-5.7 2.552-5.7 5.7 2.552 5.7 5.7 5.7" clip-rule="evenodd"/></svg>
